X:250
T: Jimmy Doyle's Favorite
S: "Johnny O'Leary of Sliabh Luachra" (#259)
Z: B.Black
L: 1/8
M: 6/8
R: jig
K: G
Fdd cAA|dcA A2G|FdF cAA|dcA G2G|
Fdd cAA|dcd efg|faf ged|cAF G3 :|
A2A fdd|cAB c/B/AB|A2A fed|dcA G3|
A3 fed|cAB B/c/de|fgf ded|cAF G3 :|
